X:1
T:Title
%%score 1 ( 2 3 )
L:1/8
Q:1/4=100
M:4/4
K:E
V:1 treble nm="Strings 1, SOPRANO ALTO"
V:2 bass nm="Strings 1, TENOR BASS"
V:3 bass 
V:1
 z4 z2 E>F | [EG]2 [EG]2 [EG]2 E>G | [GB]2 [GB]2 [GB]2 [Ge]2 | [Ad]2 [Ad]2 [Ac]2 [Bd]2 | %4
 [Ac]2 [GB]2 [GB]2 E>F | [EG]2 [EG]2 [EG]2 E>G | [GB]2 [GB]2 [GB]2 [Ac]2 | %7
 [GB]2 E>[EF] [EG]2 [DF]2 | E6 [GB]>[GB] | [Ge]6 [Ac]2 | [GB]6 [GB]>[GB] | %11
 [Ge]2 [Ge]2 [GB]2 [EG]2 | [EB]2 [DA]>[EG] [DF]2 E>[EF] | [EG]6 [EG]>[FA] | [GB]6 [Ac]2 | %15
 [GB]2 E>[EF] [EG]2 [B,F]2 | [B,E]6 z2 |] %17
V:2
 z4 z2 G,>A, | [E,B,]2 [E,B,]2 [E,B,]2 G,>B, | [E,E]2 [E,E]2 [E,E]2 [E,B,]2 | %3
w: 1.~A *|long~ a~ dark~ and~ *|gloom y~ path~ I~|
 [B,,B,]2 [B,,B,]2 [B,,B,]2 [B,,B,]2 | [E,B,]2 [E,E]2 [E,E]2 G,>A, | %5
w: groped~ be neath~ the~|shades~ of~ death;~ No~ *|
 [E,B,]2 [E,B,]2 [E,B,]2 G,>B, | [E,E]2 [E,E]2 [E,E]2 [A,,E]2 | %7
w: hope~ be yond~ my~ *|dy ing~ breath,~ Till~|
 [B,,E]2 [B,,G,]>[B,,A,] [B,,B,]2 [B,,A,]2 | [E,G,]6 z2 | z2 [E,B,]>[E,B,] [E,B,]2 [E,E]2 | %10
w: light~ from~ the~ Sav ior~|came.~||
 [E,E]2 [E,E]2 [E,E]2 [E,E]>[E,E] | [E,B,]2 [E,B,]2 [E,E]2 [E,B,]2 | %12
w: ||
 [G,B,]2 [F,B,]>[E,B,] [B,,B,]2 z2 | z2 [E,B,]>[E,B,] [E,B,]2 z2 | z2 [E,E]>[E,E] [E,E]2 [A,,E]2 | %15
w: |||
 [B,,E]2 [B,,G,]>[B,,A,] [B,,B,]2 [B,,A,]2 | [E,G,]6 z2 |] %17
w: ||
V:3
 z4 z2 E,2 | z4 z2 E,2 | x8 | x8 | z4 z2 E,2 | z4 z2 E,2 | x8 | x8 | x8 | x8 | x8 | x8 | x8 | x8 | %14
 x8 | x8 | x8 |] %17

